/* XPM */
static char * exit_xpm[] = {
"32 32 518 2",
"  	c #368D63",
". 	c #378D63",
"+ 	c #46925E",
"@ 	c #46925D",
"# 	c #45925E",
"$ 	c #368D64",
"% 	c #388E62",
"& 	c #679F4A",
"* 	c #6FA443",
"= 	c #45925F",
"- 	c #388D63",
"; 	c #47915E",
"> 	c #45915E",
", 	c #4A925C",
"' 	c #6EA344",
") 	c #368C63",
"! 	c #67A049",
"~ 	c #66A04A",
"{ 	c #328865",
"] 	c #3F8F61",
"^ 	c #68A049",
"/ 	c #6FA349",
"( 	c #4C9262",
"_ 	c #3E8F62",
": 	c #669F4C",
"< 	c #398E64",
"[ 	c #3F8A62",
"} 	c #196D6B",
"| 	c #397D65",
"1 	c #328864",
"2 	c #397E66",
"3 	c #397E65",
"4 	c #1B726C",
"5 	c #3E8F61",
"6 	c #699E4D",
"7 	c #597A3F",
"8 	c #416546",
"9 	c #639749",
"0 	c #428E66",
"a 	c #44835E",
"b 	c #3E825C",
"c 	c #407B55",
"d 	c #47583D",
"e 	c #3D835D",
"f 	c #3A8B62",
"g 	c #135C67",
"h 	c #3B7E67",
"i 	c #387D65",
"j 	c #70A443",
"k 	c #70A442",
"l 	c #186D6B",
"m 	c #388A5F",
"n 	c #3B6144",
"o 	c #3E4E37",
"p 	c #4B6B4B",
"q 	c #685948",
"r 	c #515D44",
"s 	c #3C362A",
"t 	c #413929",
"u 	c #66684E",
"v 	c #547458",
"w 	c #4F6B55",
"x 	c #45725B",
"y 	c #3C684D",
"z 	c #679E49",
"A 	c #68A04A",
"B 	c #6FA442",
"C 	c #105567",
"D 	c #368C62",
"E 	c #3B875F",
"F 	c #488B59",
"G 	c #498255",
"H 	c #476A4A",
"I 	c #443E25",
"J 	c #4C4333",
"K 	c #746353",
"L 	c #7D6F57",
"M 	c #675A43",
"N 	c #4A412F",
"O 	c #443A2B",
"P 	c #7A6C54",
"Q 	c #8F8362",
"R 	c #7A7055",
"S 	c #594B34",
"T 	c #383D33",
"U 	c #3D7659",
"V 	c #145566",
"W 	c #358D64",
"X 	c #699F4A",
"Y 	c #318464",
"Z 	c #135C69",
"` 	c #398E62",
" .	c #44915F",
"..	c #3A8A5F",
"+.	c #4C7247",
"@.	c #515933",
"#.	c #535738",
"$.	c #665B3E",
"%.	c #443B2B",
"&.	c #473E2E",
"*.	c #675B46",
"=.	c #7D7057",
"-.	c #695C45",
";.	c #4E4332",
">.	c #493F2E",
",.	c #776A52",
"'.	c #8B7F66",
").	c #7D6F56",
"!.	c #64573F",
"~.	c #534734",
"{.	c #645D4E",
"].	c #43534B",
"^.	c #3F7E59",
"/.	c #3E7D58",
"(.	c #276163",
"_.	c #22786B",
":.	c #429061",
"<.	c #6AA048",
"[.	c #6BA147",
"}.	c #418C5F",
"|.	c #56763A",
"1.	c #3A3225",
"2.	c #544835",
"3.	c #3B3325",
"4.	c #463D2D",
"5.	c #5F533E",
"6.	c #4C4231",
"7.	c #4F4432",
"8.	c #5A4D39",
"9.	c #84775F",
"0.	c #84775E",
"a.	c #695A42",
"b.	c #645843",
"c.	c #8A7E66",
"d.	c #695E3F",
"e.	c #40392B",
"f.	c #417350",
"g.	c #388960",
"h.	c #46915E",
"i.	c #689D4A",
"j.	c #5C8546",
"k.	c #426C4C",
"l.	c #4D4632",
"m.	c #362E22",
"n.	c #4B4130",
"o.	c #504533",
"p.	c #453B2B",
"q.	c #423A2A",
"r.	c #3F3628",
"s.	c #4A402F",
"t.	c #5D503A",
"u.	c #594C38",
"v.	c #60543E",
"w.	c #75674E",
"x.	c #73654E",
"y.	c #564A37",
"z.	c #6A5D46",
"A.	c #887B63",
"B.	c #655943",
"C.	c #3B3426",
"D.	c #48553D",
"E.	c #40845D",
"F.	c #45915F",
"G.	c #3E8A63",
"H.	c #3C4B35",
"I.	c #494228",
"J.	c #5E513B",
"K.	c #433A2A",
"L.	c #675940",
"M.	c #463D2C",
"N.	c #534836",
"O.	c #514736",
"P.	c #6E604A",
"Q.	c #72634B",
"R.	c #60533D",
"S.	c #74674F",
"T.	c #60533E",
"U.	c #594D38",
"V.	c #564A36",
"W.	c #685D48",
"X.	c #83775F",
"Y.	c #61543E",
"Z.	c #403728",
"`.	c #616049",
" +	c #637659",
".+	c #398A61",
"++	c #679F49",
"@+	c #6B9F4E",
"#+	c #3C8E65",
"$+	c #3B8860",
"%+	c #385038",
"&+	c #473E2D",
"*+	c #574A36",
"=+	c #554A36",
"-+	c #6B5B42",
";+	c #5E5340",
">+	c #5A4F3C",
",+	c #625745",
"'+	c #7D7059",
")+	c #756850",
"!+	c #665942",
"~+	c #81745B",
"{+	c #5D503D",
"]+	c #5B4F3A",
"^+	c #544A37",
"/+	c #645741",
"(+	c #453C2C",
"_+	c #786B53",
":+	c #7B7059",
"<+	c #515B43",
"[+	c #395C41",
"}+	c #3E7C58",
"|+	c #4B8D68",
"1+	c #485D41",
"2+	c #3D3122",
"3+	c #483E2D",
"4+	c #4A3F2F",
"5+	c #695A41",
"6+	c #5E5441",
"7+	c #695D48",
"8+	c #544A38",
"9+	c #70634E",
"0+	c #71654D",
"a+	c #635641",
"b+	c #80735B",
"c+	c #544936",
"d+	c #73664F",
"e+	c #524735",
"f+	c #6C5E46",
"g+	c #6D5F49",
"h+	c #6C5F48",
"i+	c #4E533A",
"j+	c #3A7653",
"k+	c #427351",
"l+	c #398D64",
"m+	c #476143",
"n+	c #393124",
"o+	c #372F23",
"p+	c #41382A",
"q+	c #413829",
"r+	c #483E2E",
"s+	c #655A46",
"t+	c #6A5E48",
"u+	c #574B38",
"v+	c #766851",
"w+	c #4E4432",
"x+	c #7F725A",
"y+	c #554936",
"z+	c #675941",
"A+	c #5C503B",
"B+	c #5C4F3A",
"C+	c #695B45",
"D+	c #406145",
"E+	c #378C62",
"F+	c #378B62",
"G+	c #3F5B3E",
"H+	c #524634",
"I+	c #3B3326",
"J+	c #3D3527",
"K+	c #493F2F",
"L+	c #3E3628",
"M+	c #534735",
"N+	c #42392A",
"O+	c #5E5541",
"P+	c #5B503C",
"Q+	c #4C4331",
"R+	c #615540",
"S+	c #7F725B",
"T+	c #776951",
"U+	c #615541",
"V+	c #49402E",
"W+	c #554A37",
"X+	c #71634C",
"Y+	c #416548",
"Z+	c #388A61",
"`+	c #3F835C",
" @	c #3C412E",
".@	c #3E3527",
"+@	c #342D21",
"@@	c #494131",
"#@	c #504734",
"$@	c #403829",
"%@	c #685B44",
"&@	c #61533E",
"*@	c #6D624D",
"=@	c #766953",
"-@	c #433A2B",
";@	c #665841",
">@	c #463C29",
",@	c #3D7E58",
"'@	c #418A63",
")@	c #476344",
"!@	c #373124",
"~@	c #433B2B",
"{@	c #3C3426",
"]@	c #3F3828",
"^@	c #463C2D",
"/@	c #3C3526",
"(@	c #3F3729",
"_@	c #3C3326",
":@	c #4B412F",
"<@	c #685D4A",
"[@	c #766952",
"}@	c #6C6246",
"|@	c #437F59",
"1@	c #3E7C57",
"2@	c #407954",
"3@	c #394431",
"4@	c #312A1E",
"5@	c #3D3528",
"6@	c #3E3528",
"7@	c #3C3427",
"8@	c #373023",
"9@	c #463C2C",
"0@	c #41392A",
"a@	c #4E4331",
"b@	c #5E523E",
"c@	c #4B4231",
"d@	c #4E4433",
"e@	c #6B604C",
"f@	c #536B4D",
"g@	c #39875F",
"h@	c #386747",
"i@	c #302D20",
"j@	c #342C21",
"k@	c #352E23",
"l@	c #332C21",
"m@	c #3A3226",
"n@	c #383124",
"o@	c #352F22",
"p@	c #342E20",
"q@	c #312A1F",
"r@	c #443C2B",
"s@	c #3A3326",
"t@	c #3F3728",
"u@	c #332E21",
"v@	c #514837",
"w@	c #423929",
"x@	c #463C2B",
"y@	c #524837",
"z@	c #676044",
"A@	c #477655",
"B@	c #3C845D",
"C@	c #3D8F61",
"D@	c #416A49",
"E@	c #342F22",
"F@	c #2A241B",
"G@	c #1E1B13",
"H@	c #2D281D",
"I@	c #1F1B14",
"J@	c #2D281C",
"K@	c #252118",
"L@	c #2B251C",
"M@	c #2D281E",
"N@	c #302A1E",
"O@	c #453D2C",
"P@	c #2F291E",
"Q@	c #352D21",
"R@	c #3F3727",
"S@	c #3A3224",
"T@	c #3A3325",
"U@	c #71644D",
"V@	c #574C3A",
"W@	c #495D43",
"X@	c #408D5F",
"Y@	c #6EA052",
"Z@	c #43573B",
"`@	c #362F22",
" #	c #362F23",
".#	c #332D21",
"+#	c #262118",
"@#	c #1C1913",
"##	c #141312",
"$#	c #11100D",
"%#	c #211D15",
"&#	c #1B1813",
"*#	c #2E281E",
"=#	c #1D1A13",
"-#	c #342E22",
";#	c #231F17",
">#	c #2A251A",
",#	c #29241B",
"'#	c #342E21",
")#	c #352F21",
"!#	c #4D4331",
"~#	c #6B5D45",
"{#	c #4C4332",
"]#	c #406A49",
"^#	c #43915F",
"/#	c #6EA346",
"(#	c #639144",
"_#	c #394B34",
":#	c #353022",
"<#	c #322B20",
"[#	c #252018",
"}#	c #12100E",
"|#	c #131310",
"1#	c #1C1813",
"2#	c #231E17",
"3#	c #141311",
"4#	c #1B1713",
"5#	c #373024",
"6#	c #13130F",
"7#	c #201C14",
"8#	c #272218",
"9#	c #1A1713",
"0#	c #2C281D",
"a#	c #686052",
"b#	c #63823C",
"c#	c #6B9F43",
"d#	c #3C8F61",
"e#	c #439061",
"f#	c #3E805A",
"g#	c #233827",
"h#	c #2B261B",
"i#	c #161312",
"j#	c #151313",
"k#	c #13120F",
"l#	c #1E1A14",
"m#	c #0F0E0C",
"n#	c #100F0D",
"o#	c #2D271D",
"p#	c #151312",
"q#	c #211D16",
"r#	c #1E1B14",
"s#	c #13110E",
"t#	c #1F1B13",
"u#	c #332F21",
"v#	c #545F45",
"w#	c #5F7C3B",
"x#	c #3F7E5A",
"y#	c #3B8E62",
"z#	c #6DA344",
"A#	c #3F543C",
"B#	c #181F17",
"C#	c #201C15",
"D#	c #100F0C",
"E#	c #090808",
"F#	c #0C0B0A",
"G#	c #0B0B0A",
"H#	c #241F18",
"I#	c #1D1913",
"J#	c #131311",
"K#	c #221E17",
"L#	c #444C2A",
"M#	c #378860",
"N#	c #358C63",
"O#	c #6FA344",
"P#	c #358B63",
"Q#	c #3E805B",
"R#	c #3D5A42",
"S#	c #1D1B15",
"T#	c #0B0A09",
"U#	c #12100D",
"V#	c #070707",
"W#	c #080707",
"X#	c #0E0D0B",
"Y#	c #0D0C0B",
"Z#	c #181513",
"`#	c #352E22",
" $	c #2B3827",
".$	c #3E7E59",
"+$	c #21736D",
"@$	c #20736D",
"#$	c #1B726D",
"$$	c #3F695C",
"%$	c #453B2C",
"&$	c #181713",
"*$	c #060707",
"=$	c #0A0A09",
"-$	c #090908",
";$	c #12110E",
">$	c #383B2C",
",$	c #3F704F",
"'$	c #328964",
")$	c #347B68",
"!$	c #70A344",
"~$	c #368862",
"{$	c #3C5754",
"]$	c #5F7F3D",
"^$	c #39664B",
"/$	c #0D1F20",
"($	c #100E0C",
"_$	c #060606",
":$	c #1F221B",
"<$	c #47523A",
"[$	c #1C726B",
"}$	c #21776A",
"|$	c #42905F",
"1$	c #699C48",
"2$	c #1D6065",
"3$	c #358762",
"4$	c #135A67",
"5$	c #277166",
"6$	c #45573D",
"7$	c #3A452F",
"8$	c #222119",
"9$	c #0E110D",
"0$	c #070A09",
"a$	c #0A0909",
"b$	c #171614",
"c$	c #1A2C21",
"d$	c #2A5C40",
"e$	c #3F6548",
"f$	c #3A875F",
"g$	c #398A60",
"h$	c #3F805A",
"i$	c #485B41",
"j$	c #387652",
"k$	c #2D714F",
"l$	c #2C6A4B",
"m$	c #37553C",
"n$	c #4A4D35",
"o$	c #426D4D",
"p$	c #378B61",
"q$	c #398961",
"r$	c #388B62",
"s$	c #3D7B58",
"                              . + @                             ",
"                      . # $   % & * =                           ",
"            - ; >   . , ' )     . ! ~   { {       { { {         ",
"            ] ^ / ( _ * :     < [ [     } | {   1 2 3 4         ",
"              5 6 7 8 9 0 a b c d e f { g 6 h { i j k l         ",
"                $ m n o p q r s t u v w x y z l A B A C         ",
"          D E F G H I J K L M N O P Q R S T U V W X Y Z         ",
"  ` +  .  ..+.@.#.$.%.&.*.=.-.;.>.,.'.).!.~.{.].^./.(._.        ",
"  :.<.[. .}.|.1.2.~.3.4.O 5.6.7.8.,.9.0.a.b.c.d.e.f.g.    + h.  ",
"    :.i.j.k.l.m.n.o.p.7.q.r.s.t.u.v.w.x.y.z.A.B.C.D.E.  F.* ^ $ ",
"      G.H.I.J.K.o.L.M.N.&.O.P.Q.R.S.T.U.V.W.X.Y.Z.`. +.+++@+$   ",
"    #+$+%+&+*+r.=+-+o.;+>+,+'+)+!+~+{+R.]+^+)+/+(+_+:+<+[+}+    ",
"    |+1+2+(+3+1.4+5+>.6+7+8+9+0+a+b+c+d+R.e+f+g+V.L h+i+j+k+l+  ",
"    < m+o.n+o+p+q+V.q+y.R.r+s+t+u+v+w+x+P y+z+A+B+C+M D+E+F+    ",
"    ) G+H+Z.I+(+J+K+L+M+R.N+O+P+Q+R+&.S+T+u.A+U+V+W+X+Y+Z+      ",
"    `+ @q+.@.@(+3++@+@3+=+J+@@#@L+p+$@%@&@;.*@=@-@o.;@>@,@      ",
"  '@)@!@+@I+r.p+~@{@]@^@K+I+/@(+(@_@$@:@(+r.<@[@(+n.~.}@|@      ",
"  1@2@3@4@.@1.J+5@6@J+7@{@8@9@C.0@a@I+$@&.J+n.b@%.c@d@e@f@g@    ",
"    . h@i@{@j@k@l@m@n@o@p@q@r@s@t@V.u@r+v@w@x@&+N+s+y@z@A@B@    ",
"  . C@D@E@N+1.o@F@G@H@I@J@K@L@M@N@O@P@Q@R@m.S@T@N+U@V@W@X@      ",
"  F.Y@Z@`@O@ #.#+#@###$#%#&#*#+#=#-#*#;#>#,#'#)#!#~#{#]#k W     ",
"  ^#/#(#_#:#<#,#[#@#}#@#|#1#C.2#3#4#5#6#7#8#9#0#7.A+a#b#c#  d#d#",
"    e#A f#g#h#i#j#}#k#l#m#n#o#p#q#r#.#s# #H@9#t#l@u#v#w#x#y#j z#",
"        F+A#B#C#D#k#E#F#+#n#|#G#H#I#[#|#p+J#I#K#3#L#M#g.N#O#'   ",
"      N#P#Q#R#S#T#E#|#T#9#U#V#W#X#Y#Z#|#`#m#Z#I# $.$.           ",
"    { +$@$#$$$%$&$*$p#=$-$E#V#V#V#V#F#|#;$,#1#>$,$E+            ",
"  '$)$!$<.~${$]$^$/$($V#_$V#V#V#V#V#G#D#-$:$<$/.B@)             ",
"  { [$}$|$1$2$3$4$5$6$7$8$9$0$0$a$m#b$c$d$e$f$                  ",
"                    g$h$i$j$k$l$m$n$o$E E+p$                    ",
"                        /.q$    r$s$E+                          ",
"                        <                                       ",
"                                                                "};
