/* XPM */
static char * game_xpm[] = {
"32 32 148 2",
"  	c #368D63",
". 	c #378D63",
"+ 	c #46925E",
"@ 	c #46925D",
"# 	c #45925E",
"$ 	c #368D64",
"% 	c #388E62",
"& 	c #679F4A",
"* 	c #6FA443",
"= 	c #45925F",
"- 	c #388D63",
"; 	c #47915E",
"> 	c #45915E",
", 	c #4A925C",
"' 	c #6EA344",
") 	c #368C63",
"! 	c #67A049",
"~ 	c #66A04A",
"{ 	c #328865",
"] 	c #3F8F61",
"^ 	c #68A049",
"/ 	c #6DA245",
"( 	c #3D8F62",
"_ 	c #669F4C",
": 	c #196D6B",
"< 	c #397D65",
"[ 	c #328864",
"} 	c #397E66",
"| 	c #397E65",
"1 	c #1B726C",
"2 	c #3E8F61",
"3 	c #67A04A",
"4 	c #649E4C",
"5 	c #3C8E62",
"6 	c #659F4B",
"7 	c #135C67",
"8 	c #679F49",
"9 	c #387D66",
"0 	c #387D65",
"a 	c #70A443",
"b 	c #70A442",
"c 	c #186D6B",
"d 	c #387E65",
"e 	c #328766",
"f 	c #68A04A",
"g 	c #6FA442",
"h 	c #105567",
"i 	c #47915D",
"j 	c #1C726C",
"k 	c #669C4C",
"l 	c #21776B",
"m 	c #328464",
"n 	c #358D64",
"o 	c #699F4A",
"p 	c #318464",
"q 	c #135C69",
"r 	c #398E62",
"s 	c #44915F",
"t 	c #4D945B",
"u 	c #649E4D",
"v 	c #22786B",
"w 	c #22786A",
"x 	c #1C6366",
"y 	c #1C6465",
"z 	c #429061",
"A 	c #6AA048",
"B 	c #6BA147",
"C 	c #408F61",
"D 	c #639E4D",
"E 	c #46915E",
"F 	c #639D4D",
"G 	c #45915F",
"H 	c #000000",
"I 	c #DDD021",
"J 	c #D4A71F",
"K 	c #AE411A",
"L 	c #CC8A1E",
"M 	c #69A148",
"N 	c #3C8F61",
"O 	c #419060",
"P 	c #338964",
"Q 	c #297769",
"R 	c #28776A",
"S 	c #20766B",
"T 	c #338963",
"U 	c #2F7968",
"V 	c #6FA343",
"W 	c #29776A",
"X 	c #348B64",
"Y 	c #3D8F61",
"Z 	c #43915F",
"` 	c #6EA345",
" .	c #69A149",
"..	c #348A64",
"+.	c #2C776A",
"@.	c #6DA146",
"#.	c #6AA147",
"$.	c #3A8C61",
"%.	c #1F5C64",
"&.	c #6DA345",
"*.	c #6DA045",
"=.	c #6BA045",
"-.	c #1B716B",
";.	c #3C8E61",
">.	c #358D63",
",.	c #6DA244",
"'.	c #439061",
").	c #1D736B",
"!.	c #6A9F47",
"~.	c #205F65",
"{.	c #6BA247",
"].	c #358B63",
"^.	c #145A67",
"/.	c #155A66",
"(.	c #6DA344",
"_.	c #3B8E62",
":.	c #358C64",
"<.	c #358C63",
"[.	c #6FA344",
"}.	c #338965",
"|.	c #22746B",
"1.	c #21746B",
"2.	c #1E736B",
"3.	c #398E61",
"4.	c #21736D",
"5.	c #20736D",
"6.	c #1B726D",
"7.	c #317869",
"8.	c #6FA441",
"9.	c #689E47",
"0.	c #165C66",
"a.	c #328964",
"b.	c #347B68",
"c.	c #70A344",
"d.	c #368862",
"e.	c #2A6363",
"f.	c #338763",
"g.	c #175D66",
"h.	c #3B8E61",
"i.	c #70A342",
"j.	c #1C726B",
"k.	c #21776A",
"l.	c #42905F",
"m.	c #699C48",
"n.	c #196066",
"o.	c #338863",
"p.	c #135A67",
"q.	c #1F756B",
"                              . + @                             ",
"                      . # $   % & * =                           ",
"            - ; >   . , ' )     . ! ~   { {       { { {         ",
"            ] ^ / > ( * _               : < {   [ } | 1         ",
"              2 3 4 5 6               { 7 8 9 { 0 a b c         ",
"                $     $             { | d e f c f g f h         ",
"            . i >                   j k 3 l m h n o p q         ",
"  r + s   r t * u                   v w     x y     x v         ",
"  z A B s C ^ D                                           + E   ",
"    z ^ F     n                                         G * ^ $ ",
"      $ $                                               ! ^ $   ",
"                                                                ",
"  H H H H H H H H H H H H H H H H H H   H H H H H H H H H H H   ",
"  H I I I I I H H I I I I I H H I I H H H I I H H I I I I I H   ",
"  H J J K K K H H J J K J J H H J J J H J J J H H J J K K K H   ",
"  H J J H J J H H J J J J J H H J J J J J J J H H J J J J H H   ",
"  H L L H K L H H L L K L L H H L L K L K L L H H L L K K H H   ",
"  H L L L L L H H L L H L L H H L L H K H L L H H L L L L L H   ",
"  H K K K K K H H K K H K K H H K K H H H K K H H K K K K K H   ",
"  H H H H H H H H H H H H H H H H H H   H H H H H H H H H H H   ",
"  G M N O 8     P Q R S T U b V W X                   Y b n     ",
"  Z `  .  $   ..+.@.#.$.%.b &.*.=.-.        5 ;.;.  >.b ,.  N N ",
"    '.f       ..).S N !.~.{.].^.^./.        (.b b _.  ' :._.a (.",
"              <.<.<.                        >.[.' ' n   >.[.'   ",
"      <.<.<.}.|.1.2.      $ r r 3.                              ",
"    { 4.5.6.7.8.9.0.      ;.g * &.:.                            ",
"  a.b.c.A d.e.B f.g.    h.g i.[.                                ",
"  { j.k.l.m.n.o.p.q.                                            ",
"                                                                ",
"                                                                ",
"                                                                ",
"                                                                "};
