/* XPM */
static char * grass_xpm[] = {
"32 32 148 2",
"  	c #368D63",
". 	c #378D63",
"+ 	c #46925E",
"@ 	c #46925D",
"# 	c #45925E",
"$ 	c #368D64",
"% 	c #388E62",
"& 	c #679F4A",
"* 	c #6FA443",
"= 	c #45925F",
"- 	c #388D63",
"; 	c #47915E",
"> 	c #45915E",
", 	c #4A925C",
"' 	c #6EA344",
") 	c #368C63",
"! 	c #67A049",
"~ 	c #66A04A",
"{ 	c #328865",
"] 	c #3F8F61",
"^ 	c #68A049",
"/ 	c #6DA245",
"( 	c #3D8F62",
"_ 	c #669F4C",
": 	c #196D6B",
"< 	c #397D65",
"[ 	c #328864",
"} 	c #397E66",
"| 	c #397E65",
"1 	c #1B726C",
"2 	c #3E8F61",
"3 	c #67A04A",
"4 	c #649E4C",
"5 	c #3C8E62",
"6 	c #659F4B",
"7 	c #135C67",
"8 	c #679F49",
"9 	c #387D66",
"0 	c #387D65",
"a 	c #70A443",
"b 	c #70A442",
"c 	c #186D6B",
"d 	c #387E65",
"e 	c #328766",
"f 	c #68A04A",
"g 	c #6FA442",
"h 	c #105567",
"i 	c #47915D",
"j 	c #1C726C",
"k 	c #669C4C",
"l 	c #21776B",
"m 	c #328464",
"n 	c #358D64",
"o 	c #699F4A",
"p 	c #318464",
"q 	c #135C69",
"r 	c #398E62",
"s 	c #44915F",
"t 	c #4D945B",
"u 	c #649E4D",
"v 	c #22786B",
"w 	c #22786A",
"x 	c #1C6366",
"y 	c #1C6465",
"z 	c #429061",
"A 	c #6AA048",
"B 	c #6BA147",
"C 	c #408F61",
"D 	c #639E4D",
"E 	c #46915E",
"F 	c #639D4D",
"G 	c #45915F",
"H 	c #378D62",
"I 	c #47925D",
"J 	c #6BA148",
"K 	c #348A64",
"L 	c #348B64",
"M 	c #3C8F61",
"N 	c #42905F",
"O 	c #70A342",
"P 	c #2B776A",
"Q 	c #2B7869",
"R 	c #69A148",
"S 	c #419060",
"T 	c #338964",
"U 	c #297769",
"V 	c #28776A",
"W 	c #20766B",
"X 	c #338963",
"Y 	c #2F7968",
"Z 	c #6FA343",
"` 	c #29776A",
" .	c #3D8F61",
"..	c #43915F",
"+.	c #6EA345",
"@.	c #69A149",
"#.	c #2C776A",
"$.	c #6DA146",
"%.	c #6AA147",
"&.	c #3A8C61",
"*.	c #1F5C64",
"=.	c #6DA345",
"-.	c #6DA045",
";.	c #6BA045",
">.	c #1B716B",
",.	c #3C8E61",
"'.	c #358D63",
").	c #6DA244",
"!.	c #439061",
"~.	c #1D736B",
"{.	c #6A9F47",
"].	c #205F65",
"^.	c #6BA247",
"/.	c #358B63",
"(.	c #145A67",
"_.	c #155A66",
":.	c #6DA344",
"<.	c #3B8E62",
"[.	c #358C64",
"}.	c #358C63",
"|.	c #6FA344",
"1.	c #338965",
"2.	c #22746B",
"3.	c #21746B",
"4.	c #1E736B",
"5.	c #398E61",
"6.	c #21736D",
"7.	c #20736D",
"8.	c #1B726D",
"9.	c #317869",
"0.	c #6FA441",
"a.	c #689E47",
"b.	c #165C66",
"c.	c #328964",
"d.	c #347B68",
"e.	c #70A344",
"f.	c #368862",
"g.	c #2A6363",
"h.	c #338763",
"i.	c #175D66",
"j.	c #3B8E61",
"k.	c #1C726B",
"l.	c #21776A",
"m.	c #699C48",
"n.	c #196066",
"o.	c #338863",
"p.	c #135A67",
"q.	c #1F756B",
"                              . + @                             ",
"                      . # $   % & * =                           ",
"            - ; >   . , ' )     . ! ~   { {       { { {         ",
"            ] ^ / > ( * _               : < {   [ } | 1         ",
"              2 3 4 5 6               { 7 8 9 { 0 a b c         ",
"                $     $             { | d e f c f g f h         ",
"            . i >                   j k 3 l m h n o p q         ",
"  r + s   r t * u                   v w     x y     x v         ",
"  z A B s C ^ D                                           + E   ",
"    z ^ F     n                                         G * ^ $ ",
"      $ $                                               ! ^ $   ",
"                                                                ",
"                                                                ",
"                                                                ",
"                                                                ",
"                                                                ",
"                                                                ",
"          H 2                                                   ",
"        . I J               K L                                 ",
"  . M   N O 3     L L L   K P Q L                       2       ",
"  G R M S 8     T U V W X Y b Z ` L                    .b n     ",
"  ..+.@.  $   K #.$.%.&.*.b =.-.;.>.        5 ,.,.  '.b ).  M M ",
"    !.f       K ~.W M {.].^./.(.(._.        :.b b <.  ' [.<.a :.",
"              }.}.}.                        '.|.' ' n   '.|.'   ",
"      }.}.}.1.2.3.4.      $ r r 5.                              ",
"    { 6.7.8.9.0.a.b.      ,.g * =.[.                            ",
"  c.d.e.A f.g.B h.i.    j.g O |.                                ",
"  { k.l.N m.n.o.p.q.                                            ",
"                                                                ",
"                                                                ",
"                                                                ",
"                                                                "};
