/* XPM */
static char * item_xpm[] = {
"32 32 134 2",
"  	c #368D63",
". 	c #378D63",
"+ 	c #46925E",
"@ 	c #46925D",
"# 	c #45925E",
"$ 	c #368D64",
"% 	c #388E62",
"& 	c #679F4A",
"* 	c #6FA443",
"= 	c #45925F",
"- 	c #388D63",
"; 	c #47915E",
"> 	c #45915E",
", 	c #4A925C",
"' 	c #6EA344",
") 	c #368C63",
"! 	c #67A049",
"~ 	c #66A04A",
"{ 	c #328865",
"] 	c #3F8F61",
"^ 	c #68A049",
"/ 	c #6DA245",
"( 	c #3D8F62",
"_ 	c #669F4C",
": 	c #196D6B",
"< 	c #397D65",
"[ 	c #328864",
"} 	c #397E66",
"| 	c #397E65",
"1 	c #1B726C",
"2 	c #3E8F61",
"3 	c #67A04A",
"4 	c #649E4C",
"5 	c #3C8E62",
"6 	c #659F4B",
"7 	c #135C67",
"8 	c #679F49",
"9 	c #387D66",
"0 	c #387D65",
"a 	c #70A443",
"b 	c #70A442",
"c 	c #186D6B",
"d 	c #387E65",
"e 	c #328766",
"f 	c #68A04A",
"g 	c #6FA442",
"h 	c #105567",
"i 	c #47915D",
"j 	c #8E0909",
"k 	c #358D64",
"l 	c #699F4A",
"m 	c #318464",
"n 	c #135C69",
"o 	c #398E62",
"p 	c #44915F",
"q 	c #4D945B",
"r 	c #8E0707",
"s 	c #8E0808",
"t 	c #1C6366",
"u 	c #22786B",
"v 	c #429061",
"w 	c #6AA048",
"x 	c #6BA147",
"y 	c #408F61",
"z 	c #E53630",
"A 	c #FF9C91",
"B 	c #FF6161",
"C 	c #6D002E",
"D 	c #6D012E",
"E 	c #46915E",
"F 	c #639D4D",
"G 	c #E5352F",
"H 	c #E5342E",
"I 	c #6C002E",
"J 	c #45915F",
"K 	c #FFFFFF",
"L 	c #C12222",
"M 	c #6C002D",
"N 	c #FFCEC0",
"O 	c #FF6060",
"P 	c #C12121",
"Q 	c #8F152E",
"R 	c #90162E",
"S 	c #47925D",
"T 	c #8F152D",
"U 	c #6C012E",
"V 	c #3C8F61",
"W 	c #42905F",
"X 	c #70A342",
"Y 	c #90152E",
"Z 	c #69A148",
"` 	c #419060",
" .	c #3D8F61",
"..	c #43915F",
"+.	c #6EA345",
"@.	c #69A149",
"#.	c #348A64",
"$.	c #3C8E61",
"%.	c #358D63",
"&.	c #6DA244",
"*.	c #439061",
"=.	c #1D736B",
"-.	c #20766B",
";.	c #6DA344",
">.	c #3B8E62",
",.	c #358C64",
"'.	c #358C63",
").	c #6FA344",
"!.	c #338965",
"~.	c #22746B",
"{.	c #21746B",
"].	c #1E736B",
"^.	c #21736D",
"/.	c #20736D",
"(.	c #1B726D",
"_.	c #317869",
":.	c #6FA441",
"<.	c #689E47",
"[.	c #165C66",
"}.	c #328964",
"|.	c #347B68",
"1.	c #70A344",
"2.	c #368862",
"3.	c #2A6363",
"4.	c #338763",
"5.	c #175D66",
"6.	c #3B8E61",
"7.	c #1C726B",
"8.	c #21776A",
"9.	c #699C48",
"0.	c #196066",
"a.	c #338863",
"b.	c #135A67",
"c.	c #1F756B",
"                              . + @                             ",
"                      . # $   % & * =                           ",
"            - ; >   . , ' )     . ! ~   { {       { { {         ",
"            ] ^ / > ( * _               : < {   [ } | 1         ",
"              2 3 4 5 6               { 7 8 9 { 0 a b c         ",
"                $     $             { | d e f c f g f h         ",
"            . i j j j j j j j j j j j j j j j j k l m n         ",
"  o + p   o q * j j r r r r r r s s s s s s s s     t u         ",
"  v w x p y j j z z A A A A A A B B B B B B B B C D       + E   ",
"    v ^ F   j j G H A A A A A A B B B B B B B B I C     J * ^ $ ",
"      $ j j z G K K K K A A G z L L L L L L z z B B C D ! ^ $   ",
"        j j G H K K K K A A z z L L L L L L z z B B M C         ",
"    j j z G N N K K K K O B z z z z L L L L L L z z A A C D     ",
"    j j z G N N K K K K O O G G G G L L L L L L z z A A C D     ",
"    j r A A N N N N N N K K N N N N B B z z B B B B A A C D     ",
"    j r A A N N N N N N K K N N N N B B z z B B B B A A C D     ",
"        r r P P P P G G G H N N O B Q R R R R R L L I C         ",
"        j j L L L L z z z G N N B B R R R R R R L L D D         ",
"        . S D D L L z z z z A A T R R R R R z z U D             ",
"  . V   W X D D L L z z z z A A Y R R R R R z z D D     2       ",
"  J Z V ` 8     D D L L z z B B R R R R z z U D        .b k     ",
"  ..+.@.  $   #.D D L L z z B B R R R R z z D D $.  %.b &.  V V ",
"    *.f       #.=.-.D D L L B B R R L L U D ;.b b >.  ' ,.>.a ;.",
"              '.'.'.D D L L B B R R L L D D %.).' ' k   %.).'   ",
"      '.'.'.!.~.{.].    D D L L L L D D                         ",
"    { ^./.(._.:.<.[.    D D L L L L D D                         ",
"  }.|.1.w 2.3.x 4.5.    6.g D D D D                             ",
"  { 7.8.W 9.0.a.b.c.        D D D D                             ",
"                                                                ",
"                                                                ",
"                                                                ",
"                                                                "};
