/* XPM */
static char * m_back_xpm[] = {
"32 32 74 1",
" 	c #368D63",
".	c #212121",
"+	c #378D63",
"@	c #736648",
"#	c #46925D",
"$	c #E9D150",
"%	c #3E3E3E",
"&	c #388D63",
"*	c #47915E",
"=	c #45915E",
"-	c #F2F059",
";	c #AE9A4D",
">	c #328865",
",	c #3F8F61",
"'	c #68A049",
")	c #5F5F5F",
"!	c #544E44",
"~	c #328864",
"{	c #397E65",
"]	c #1B726C",
"^	c #878787",
"/	c #CBB34E",
"(	c #186D6B",
"_	c #105567",
":	c #398E62",
"<	c #46925E",
"[	c #44915F",
"}	c #429061",
"|	c #6AA048",
"1	c #6BA147",
"2	c #46915E",
"3	c #6FA443",
"4	c #368D64",
"5	c #67A049",
"6	c #378D62",
"7	c #3E8F61",
"8	c #47925D",
"9	c #6BA148",
"0	c #000000",
"a	c #0F1E00",
"b	c #7F7F7F",
"c	c #3C8F61",
"d	c #42905F",
"e	c #70A342",
"f	c #67A04A",
"g	c #374900",
"h	c #A1A1A1",
"i	c #C6C6C6",
"j	c #45915F",
"k	c #69A148",
"l	c #419060",
"m	c #679F49",
"n	c #6D7800",
"o	c #3D8F61",
"p	c #70A442",
"q	c #358D64",
"r	c #43915F",
"s	c #6EA345",
"t	c #69A149",
"u	c #6DA244",
"v	c #439061",
"w	c #68A04A",
"x	c #358C64",
"y	c #3B8E62",
"z	c #70A443",
"A	c #6DA344",
"B	c #358D63",
"C	c #6FA344",
"D	c #6EA344",
"E	c #358C63",
"F	c #21736D",
"G	c #20736D",
"H	c #328964",
"I	c #347B68",
"             . +@#.             ",
"           +.@.@$@%@ .          ",
"      &*=.+.%-@;;;@-.%.  >>>    ",
"      ,'.).%);!-@-!;.)%.~.{]    ",
"      ..%^)%);/$!$/;%^)%.%.(    ",
"     .).%))))@;/$/;@)^)%.)._    ",
"     .%))%))%)@;;;@))))%)^%.    ",
" :<[.).)^)%))%%)%%%)))))))%.    ",
" }|1.%)%)%)%))%^)%))^%)%)%.).<2 ",
"  }'.%))%%^)%))^)))^)))%%))%.3'4",
"   44.%)%%)^)))))%))))%^%)%.5'4 ",
"     .%%))%)))%)%)%%)%^)%%%.    ",
"    .%))%))%))%%))%))))%%))%.   ",
"     .%))%)))))%))))))%%))%.    ",
"      .%)%%)%)))))%)))%))%.     ",
"       .%%%%%%)%))%%)%%%%.      ",
"      .%%%%%%%%%%)%%%%%%%%.     ",
"     67....%%.%%%%%.%%....      ",
"    +89 0ab..%.%%%.%..ba0       ",
" +c def0gabhi.h...h.ihbag0  7   ",
" jkclm0angbhhiiiiiiihhbgna0opq  ",
" rst 40gngabhhiiiiihhbagng0pu cc",
"  vw 0anngagbhhiiihhbgagnna0xyzA",
"     0annnanggbbbbbggnannna0BCD ",
"   EE0annngnnngaaagnnngnnna0    ",
"  >FG0agnngnnnnnnnnnnngnnga0    ",
" HI%0aggnnnnnnnnnnnnnnnnngga0%  ",
" >%bagnggnnnnnnnnnnnnnnnggngab% ",
"  %bgnnnngnnnnnnnnnnnnngnnnngb% ",
"   %hihnnnnnnnnnnnnnnnnnnnhih%  ",
"    %%bbhhhiiiiiiiiiiihhhbb%%   ",
"      %%%%%%bbbbbbbbb%%%%%%     "};
