/* XPM */
static char * monster_xpm[] = {
"32 32 96 2",
"  	c #368D63",
". 	c #212121",
"+ 	c #736648",
"@ 	c #45925E",
"# 	c #F2F059",
"$ 	c #388D63",
"% 	c #47915E",
"& 	c #45915E",
"* 	c #3E3E3E",
"= 	c #AE9A4D",
"- 	c #544E44",
"; 	c #328865",
"> 	c #3F8F61",
", 	c #6DA245",
"' 	c #5F5F5F",
") 	c #397E66",
"! 	c #397E65",
"~ 	c #1B726C",
"{ 	c #878787",
"] 	c #CBB34E",
"^ 	c #E9D150",
"/ 	c #186D6B",
"( 	c #7F1E1E",
"_ 	c #B74445",
": 	c #398E62",
"< 	c #46925E",
"[ 	c #44915F",
"} 	c #429061",
"| 	c #6AA048",
"1 	c #6BA147",
"2 	c #5F6F42",
"3 	c #46915E",
"4 	c #68A049",
"5 	c #6FA443",
"6 	c #368D64",
"7 	c #67A049",
"8 	c #6F835A",
"9 	c #4B5425",
"0 	c #640A0E",
"a 	c #7D5F49",
"b 	c #2E351E",
"c 	c #313B1B",
"d 	c #971E2A",
"e 	c #E53A52",
"f 	c #FA6B73",
"g 	c #776F50",
"h 	c #378D62",
"i 	c #3E8F61",
"j 	c #000000",
"k 	c #525252",
"l 	c #7A7A7A",
"m 	c #378D63",
"n 	c #47925D",
"o 	c #6BA148",
"p 	c #374900",
"q 	c #323232",
"r 	c #3C8F61",
"s 	c #42905F",
"t 	c #70A342",
"u 	c #67A04A",
"v 	c #6D7800",
"w 	c #45915F",
"x 	c #69A148",
"y 	c #419060",
"z 	c #679F49",
"A 	c #0F1E00",
"B 	c #C6C6C6",
"C 	c #3D8F61",
"D 	c #70A442",
"E 	c #358D64",
"F 	c #43915F",
"G 	c #6EA345",
"H 	c #69A149",
"I 	c #7F7F7F",
"J 	c #6DA244",
"K 	c #439061",
"L 	c #68A04A",
"M 	c #358C64",
"N 	c #3B8E62",
"O 	c #70A443",
"P 	c #6DA344",
"Q 	c #8B5716",
"R 	c #CE8820",
"S 	c #358D63",
"T 	c #6FA344",
"U 	c #6EA344",
"V 	c #358C63",
"W 	c #313131",
"X 	c #21736D",
"Y 	c #20736D",
"Z 	c #D5A928",
"` 	c #328964",
" .	c #347B68",
"..	c #A1A1A1",
"+.	c #0E0E0E",
"@.	c #444444",
"                            . + . +   .                         ",
"                      . @ + + # + # + + .                       ",
"            $ % &   . * . # + = - = + # * .   .   ; ; ;         ",
"            > . , . * ' . = - + # + - = ' * . ' . ) ! ~         ",
"            . * . * ' { * = ] - ^ - ] = ' * { ' * . . /         ",
"            . ' . * ' { * = ( ^ _ ^ ( = ' ' { ' * . ' .         ",
"          . * { ' * ' ' * * = ] ( ] = ' * * ' * ' ' * .         ",
"  : < [   . * ' ' ' * ' ' ' { ' * ' ' * ' ' * ' ' ' . ' .       ",
"  } | 1 . ' . * ' * { ' * { ' * 2 * ' { ' { ' * * ' ' * . < 3   ",
"    } 4 . * ' ' ' * { ' * ' * 2 2 2 * { * ' { * ' ' ' * . 5 4 6 ",
"      6 6 . * ' { * ' * 2 * 2 2 2 2 * ' 2 * ' * { ' * . 7 4 6   ",
"          . * * ' * * 2 2 8 8 8 8 8 8 * 2 2 * 9 ' * * .         ",
"        . * * 9 ' 9 * 2 8 8 8 8 8 8 8 8 8 2 2 9 ' 9 * * .       ",
"          . * 9 * 9 0 a 8 8 8 8 8 8 8 8 8 a 0 9 * 9 * .         ",
"            . b . c d d d a 8 8 8 8 8 a d d d c . b .           ",
"              . b c d e f e d 8 8 8 d e f e d c b .             ",
"            . * * b 9 d e d g 8 8 8 g d e d 9 b * * .           ",
"          h i . . j k 9 2 8 k l l l k 8 2 9 k j . .             ",
"        m n o   j p q l k q l k q k l q k l q p j               ",
"  m r   s t u j p v p k l k q q q q q k l k p v p j     i       ",
"  w x r y z j A v v B q k q l k l k l q k q B v v A j C D E     ",
"  F G H   6 j p B B I A q k l l l l l k q A I B B p j D J   r r ",
"    K L   j A I p p j A p q k l l l k q p A j p p I A j M N O P ",
"          j c Q R A j A p v q k l k q v p A j A R Q c j S T U   ",
"      V V j 8 8 c Q j W A p v q k q v p A W j Q c 8 8 j         ",
"    ; X Y j 8 2 j j j A W Q W Z q Z W Q W A j j j 2 8 j         ",
"  `  .j j A I * j j j A p p v R Z R v p p A j j j * I A j j     ",
"  ; j p A A ..* j j j A p v v v v v v v p A j j j * ..A A p j   ",
"    * I p p B * j j +.Q p v v v v v v v p Q +.j j * B p p I *   ",
"      * ..B I *       +.Q R R Z Z Z R R Q +.      * I B ..*     ",
"        * * *         +.W @.@.+.+.+.@.@.W +.        * * *       ",
"                        +.+.+.      +.+.+.                      "};
