/* XPM */
static char * m_left_xpm[] = {
"32 32 119 2",
"  	c #368D63",
". 	c #212121",
"+ 	c #736648",
"@ 	c #378D63",
"# 	c #5F5F5F",
"$ 	c #F2F059",
"% 	c #3E3E3E",
"& 	c #388D63",
"* 	c #47915E",
"= 	c #45915E",
"- 	c #AE9A4D",
"; 	c #328865",
"> 	c #3F8F61",
", 	c #68A049",
"' 	c #6DA245",
") 	c #544E44",
"! 	c #1B726C",
"~ 	c #3E8F61",
"{ 	c #7F1E1E",
"] 	c #CBB34E",
"^ 	c #E9D150",
"/ 	c #878787",
"( 	c #186D6B",
"_ 	c #B74445",
": 	c #398E62",
"< 	c #46925E",
"[ 	c #44915F",
"} 	c #429061",
"| 	c #6AA048",
"1 	c #6BA147",
"2 	c #408F61",
"3 	c #313B1B",
"4 	c #46915E",
"5 	c #639D4D",
"6 	c #4B5425",
"7 	c #5F6F42",
"8 	c #6FA443",
"9 	c #368D64",
"0 	c #67A049",
"a 	c #2E351E",
"b 	c #6F835A",
"c 	c #7D5F49",
"d 	c #640A0E",
"e 	c #971E2A",
"f 	c #E53A52",
"g 	c #FA6B73",
"h 	c #141414",
"i 	c #525252",
"j 	c #7A7A7A",
"k 	c #776F50",
"l 	c #378D62",
"m 	c #47925D",
"n 	c #6BA148",
"o 	c #323232",
"p 	c #3C8F61",
"q 	c #42905F",
"r 	c #70A342",
"s 	c #67A04A",
"t 	c #7F7F7F",
"u 	c #45915F",
"v 	c #69A148",
"w 	c #419060",
"x 	c #679F49",
"y 	c #8B5716",
"z 	c #A1A1A1",
"A 	c #C6C6C6",
"B 	c #3D8F61",
"C 	c #70A442",
"D 	c #358D64",
"E 	c #43915F",
"F 	c #6EA345",
"G 	c #69A149",
"H 	c #348A64",
"I 	c #374900",
"J 	c #358D63",
"K 	c #6DA244",
"L 	c #439061",
"M 	c #68A04A",
"N 	c #1D736B",
"O 	c #0F1E00",
"P 	c #6D7800",
"Q 	c #3B8E62",
"R 	c #6EA344",
"S 	c #358C64",
"T 	c #70A443",
"U 	c #6DA344",
"V 	c #358C63",
"W 	c #000000",
"X 	c #6FA344",
"Y 	c #338965",
"Z 	c #22746B",
"` 	c #21746B",
" .	c #1E736B",
"..	c #0E0E0E",
"+.	c #CE8820",
"@.	c #21736D",
"#.	c #20736D",
"$.	c #1B726D",
"%.	c #317869",
"&.	c #6FA441",
"*.	c #689E47",
"=.	c #165C66",
"-.	c #313131",
";.	c #328964",
">.	c #347B68",
",.	c #70A344",
"'.	c #368862",
").	c #2A6363",
"!.	c #338763",
"~.	c #175D66",
"{.	c #1C726B",
"].	c #21776A",
"^.	c #699C48",
"/.	c #196066",
"(.	c #338863",
"_.	c #135A67",
":.	c #1F756B",
"<.	c #D5A928",
"[.	c #444444",
"                      . . . + @ . + . .       . .               ",
"                    . + # + $ + + $ # % . . . % % .             ",
"            & * = . % $ + - - - + - % . % # # # # . ; ;         ",
"            > , ' . # - ) ) $ + ) $ . % % % # # # % . !         ",
"              ~ . % # { ] ^ ^ ^ ] - / / # # % # # % . (         ",
"              . % % % % - _ ] ] - # # # # % % % % % . .         ",
"            . % # % # # % # # % % % # % # / / # # % . % .       ",
"  : < [   : . % # % # # # # # # % # % # # # # # % . # # .       ",
"  } | 1 [ 2 . # # 3 % # / % # / % # # % # # % % # # # % . < 4   ",
"    } , 5   . % # 6 7 % / % % # / % / # % # # # % # % % . 8 , 9 ",
"      9 9     . % 7 7 % # % 7 % # % # / % # / / # % % . 0 , 9   ",
"                a 7 7 7 % b b b % % % # % # # % % . .           ",
"                a 7 7 b b b b b # # % % . % % % % % % .         ",
"                a 7 b b b b c d # # % 7 b % # # # % .           ",
"                a 7 b b c e e e b # 7 3 b % # # % . .           ",
"                a 6 b e f g f e b # b 3 7 % # % . % % .         ",
"                h i j k e f e b b # 7 6 a % % % % % .           ",
"          l ~   h i j j b b b b b 7 6 6 3 % % % . .             ",
"        @ m n   h o o i j 6 7 7 i 6 6 3 % % . .                 ",
"  @ p   q r s   h h h o i j j i a a a t . . %           ~       ",
"  u v p w x     h o i i o i i o y z A A A A t %       B C D     ",
"  E F G   9   H h o i j j o o y z A A I I z A t %   J C K   p p ",
"    L M       H N h i j i o I I I O P z A O t t % Q   R S Q T U ",
"              V V h o i o I P P P W P P z A I O W R D   J X R   ",
"      V V V Y Z `  .h o O I P P I ..y +.+.A I O W               ",
"    ; @.#.$.%.&.*.=.  h +.-.+.-.-.a b b 7 A z I O W             ",
"  ;.>.,.| '.).1 !.~.  ..y O I P I a b b 6 z A I O W             ",
"  ; {.].q ^./.(._.:.  W O I P P P I a a a t A I O O W % %       ",
"                      ..y I P P P P P I O % z A I O W W t %     ",
"                        ..+.+.<.<.<.+.+.y % t A I O O % t %     ",
"                          ....[.[.-.-.......% t A z z t %       ",
"                              ........        % t t t %         "};
