/* XPM */
static char * m_right_xpm[] = {
"32 32 109 2",
"  	c #368D63",
". 	c #212121",
"+ 	c #736648",
"@ 	c #46925D",
"# 	c #3E3E3E",
"$ 	c #5F5F5F",
"% 	c #F2F059",
"& 	c #388D63",
"* 	c #AE9A4D",
"= 	c #328865",
"- 	c #544E44",
"; 	c #328864",
"> 	c #397E66",
", 	c #397E65",
"' 	c #1B726C",
") 	c #878787",
"! 	c #CBB34E",
"~ 	c #E9D150",
"{ 	c #7F1E1E",
"] 	c #70A443",
"^ 	c #70A442",
"/ 	c #186D6B",
"( 	c #B74445",
"_ 	c #68A04A",
": 	c #105567",
"< 	c #135C69",
"[ 	c #398E62",
"} 	c #46925E",
"| 	c #44915F",
"1 	c #22786B",
"2 	c #429061",
"3 	c #6AA048",
"4 	c #6BA147",
"5 	c #313B1B",
"6 	c #46915E",
"7 	c #68A049",
"8 	c #5F6F42",
"9 	c #4B5425",
"0 	c #45915F",
"a 	c #6FA443",
"b 	c #368D64",
"c 	c #67A049",
"d 	c #6F835A",
"e 	c #2E351E",
"f 	c #640A0E",
"g 	c #7D5F49",
"h 	c #971E2A",
"i 	c #E53A52",
"j 	c #FA6B73",
"k 	c #776F50",
"l 	c #7A7A7A",
"m 	c #525252",
"n 	c #141414",
"o 	c #378D62",
"p 	c #3E8F61",
"q 	c #378D63",
"r 	c #47925D",
"s 	c #6BA148",
"t 	c #323232",
"u 	c #3C8F61",
"v 	c #42905F",
"w 	c #70A342",
"x 	c #67A04A",
"y 	c #348B64",
"z 	c #7F7F7F",
"A 	c #69A148",
"B 	c #419060",
"C 	c #679F49",
"D 	c #338964",
"E 	c #C6C6C6",
"F 	c #A1A1A1",
"G 	c #8B5716",
"H 	c #3D8F61",
"I 	c #358D64",
"J 	c #43915F",
"K 	c #6EA345",
"L 	c #69A149",
"M 	c #348A64",
"N 	c #374900",
"O 	c #358D63",
"P 	c #6DA244",
"Q 	c #439061",
"R 	c #0F1E00",
"S 	c #6D7800",
"T 	c #3B8E62",
"U 	c #6EA344",
"V 	c #358C64",
"W 	c #6DA344",
"X 	c #358C63",
"Y 	c #000000",
"Z 	c #6FA344",
"` 	c #338965",
" .	c #22746B",
"..	c #CE8820",
"+.	c #0E0E0E",
"@.	c #21736D",
"#.	c #20736D",
"$.	c #1B726D",
"%.	c #317869",
"&.	c #313131",
"*.	c #328964",
"=.	c #347B68",
"-.	c #70A344",
";.	c #368862",
">.	c #2A6363",
",.	c #1C726B",
"'.	c #21776A",
").	c #D5A928",
"!.	c #444444",
"                . .       . . . + @   + . .                     ",
"              . # # . . . # $ $ % + + % + # +                   ",
"            & . $ $ $ $ # . # $ * + * * * + % .   = = =         ",
"            . # $ $ $ # # # . # % - + % - - * . ; > , '         ",
"            . # $ $ # $ $ ) ) $ * ! ~ ~ ~ ! { # . ] ^ /         ",
"          . . # # # # # $ $ $ $ $ * ! ! ( * # # # . _ :         ",
"        . # . # $ $ ) ) $ # $ # # # $ $ # $ $ # $ # . <         ",
"  [ } | . $ $ . # $ $ $ $ $ # $ # $ $ $ $ $ $ # $ # . 1         ",
"  2 3 4 . # $ $ $ # # $ $ # $ $ # ) $ # ) $ # 5 $ $ .     } 6   ",
"    2 7 . # # $ # $ $ $ # $ ) # ) $ # # ) # 8 9 $ # .   0 a 7 b ",
"      b b . # # $ ) ) $ # ) $ # $ # 8 # $ # 8 8 # .     c 7 b   ",
"            . . # # $ $ # $ # # # d d d # 8 8 8 e               ",
"          . # # # # # # . # # $ $ d d d d d 8 8 e               ",
"            . # $ $ $ # d 8 # $ $ f g d d d d 8 e               ",
"            . . # $ $ # d 5 8 $ d h h h g d d 8 e               ",
"          . # # . # $ # 8 5 d $ d h i j i h d 9 e               ",
"            . # # # # # e 9 8 $ d d h i h k l m n               ",
"          o p . . # # # 5 9 9 8 d d d d d l l m n               ",
"        q r s     . . # # 5 9 9 m 8 8 9 l m t t n               ",
"  q u   v w x     y # . . z e e e m l l m t n n n       p       ",
"  0 A u B C     D # z E E E E F G t m m t m m t n     H ^ I     ",
"  J K L   b   M # z E F N N E E F G t t l l m t n   O ^ P   u u ",
"    Q _       M # z z R E F S R N N N t m l m n ^ T   U V T ] W ",
"              X Y R N E F S S Y S S S N t m t n U U I   O Z U   ",
"      X X X `  .Y R N E ....G +.N S S N R t n                   ",
"    = @.#.$.%.Y R N F E 8 d d e &.&...&...n                     ",
"  *.=.-.3 ;.>.Y R N E F 9 d d e N S N R G +.                    ",
"  = ,.'.# # Y R R N E z e e e N S S S N R Y                     ",
"      # z Y Y R N E F # R N S S S S S N G +.                    ",
"      # z # R R N E z # G ....).).).....+.                      ",
"        # z F F E z # +.+.+.&.&.!.!.+.+.                        ",
"          # z z z #         +.+.+.+.                            "};
