/* XPM */
static char * player_back_xpm[] = {
"32 32 107 2",
"  	c #368D63",
". 	c #378D63",
"+ 	c #46925E",
"@ 	c #46925D",
"# 	c #45925E",
"$ 	c #368D64",
"% 	c #388E62",
"& 	c #679F4A",
"* 	c #6FA443",
"= 	c #45925F",
"- 	c #388D63",
"; 	c #47915E",
"> 	c #45915E",
", 	c #4A925C",
"' 	c #6EA344",
") 	c #368C63",
"! 	c #67A049",
"~ 	c #66A04A",
"{ 	c #328865",
"] 	c #3F8F61",
"^ 	c #68A049",
"/ 	c #6DA245",
"( 	c #3D8F62",
"_ 	c #669F4C",
": 	c #534721",
"< 	c #196D6B",
"[ 	c #397D65",
"} 	c #328864",
"| 	c #397E66",
"1 	c #397E65",
"2 	c #1B726C",
"3 	c #3E8F61",
"4 	c #67A04A",
"5 	c #649E4C",
"6 	c #3C8E62",
"7 	c #659F4B",
"8 	c #4D3B39",
"9 	c #679F49",
"0 	c #387D66",
"a 	c #387D65",
"b 	c #70A443",
"c 	c #70A442",
"d 	c #186D6B",
"e 	c #705654",
"f 	c #8F7772",
"g 	c #68A04A",
"h 	c #6FA442",
"i 	c #105567",
"j 	c #47915D",
"k 	c #B7A099",
"l 	c #358D64",
"m 	c #699F4A",
"n 	c #318464",
"o 	c #135C69",
"p 	c #398E62",
"q 	c #44915F",
"r 	c #4D945B",
"s 	c #1C6366",
"t 	c #22786B",
"u 	c #429061",
"v 	c #6AA048",
"w 	c #6BA147",
"x 	c #408F61",
"y 	c #46915E",
"z 	c #639D4D",
"A 	c #45915F",
"B 	c #378D62",
"C 	c #47925D",
"D 	c #3C8F61",
"E 	c #42905F",
"F 	c #70A342",
"G 	c #69A148",
"H 	c #419060",
"I 	c #3D8F61",
"J 	c #43915F",
"K 	c #6EA345",
"L 	c #69A149",
"M 	c #6DA244",
"N 	c #439061",
"O 	c #358C64",
"P 	c #3B8E62",
"Q 	c #6DA344",
"R 	c #358D63",
"S 	c #6FA344",
"T 	c #358C63",
"U 	c #338965",
"V 	c #FFE1AF",
"W 	c #21736D",
"X 	c #20736D",
"Y 	c #1B726D",
"Z 	c #317869",
"` 	c #EEBE93",
" .	c #328964",
"..	c #347B68",
"+.	c #70A344",
"@.	c #368862",
"#.	c #2A6363",
"$.	c #853E10",
"%.	c #D14F35",
"&.	c #FFD0DF",
"*.	c #1C726B",
"=.	c #21776A",
"-.	c #699C48",
";.	c #196066",
">.	c #338863",
",.	c #5C2E06",
"'.	c #FF7774",
"                              . + @                             ",
"                      . # $   % & * =                           ",
"            - ; >   . , ' )     . ! ~   { {       { { {         ",
"            ] ^ / > ( * _       :       < [ {   } | 1 2         ",
"              3 4 5 6 7 8 8 8 8 8 8 8 8 8 9 0 { a b c d         ",
"                $   8 8 e e f f f f f e e 8 8 d g h g i         ",
"            . j > 8 e f f k f f f f f k f f e 8 l m n o         ",
"  p + q   p r * 8 e f f k f f f f f f f k f f e 8   s t         ",
"  u v w q x ^ 8 e f f k k f f f f f f f k k f f e 8       + y   ",
"    u ^ z     8 e f f k k f f f f f f f k k f f e 8     A * ^ $ ",
"      $ $   8 e f f f k k k f f f f f k k k f f f e 8   ! ^ $   ",
"            8 e f f f f k k k k k k k k k f f f f e 8           ",
"            8 e f f f f f k k k k k k k f f f f f e 8           ",
"            8 e f f f f f f f f f f f f f f f f f e 8           ",
"            8 e f f f f f f f f f f f f f f f f f e 8           ",
"            8 e f f f f f f f f f f f f f f f f f e 8           ",
"            8 e f f f f f f f f f f f f f f f f f e 8           ",
"          B 8 e f k f f f f f f f f f f f f f k f e 8           ",
"        . C 8 e e f k f f f f f f f f f f f k f e e 8           ",
"  . D   E F 8 e e f f f k k f f f f f k k f f f e e 8   3       ",
"  A G D H 9 8 e e f f e f f f k k k f f f e f f e e 8 I c l     ",
"  J K L   $ 8 e e e f e f f e f k f e f f e f e e e 8 c M   D D ",
"    N g     8 e 8 e f e f f e f f f e f f e f e 8 e 8 ' O P b Q ",
"              8 8 e e e e f e e f e e f e e e e 8 8 l   R S '   ",
"      T T T U : V 8 e e 8 e e e e e e e 8 e e 8 V :             ",
"    { W X Y Z : V ` 8 e 8 e e 8 e 8 e e 8 e 8 ` V :             ",
"   ...+.v @.#.w : : $.8 %.8 8 &.8 &.8 8 %.8 $.: :               ",
"  { *.=.E -.;.>.,.$.$.%.%.'.'.'.'.'.'.'.%.%.$.$.,.              ",
"                ,.$.%.%.'.'.'.'.'.'.'.'.'.%.%.$.,.              ",
"                ,.$.%.'.'.'.'.'.'.'.'.'.'.'.%.$.,.              ",
"                  ,.,.%.'.'.'.'.'.'.'.'.'.%.,.,.                ",
"                      ,.,.,.,.,.,.,.,.,.,.,.                    "};
