/* XPM */
static char * player_front_xpm[] = {
"32 32 127 2",
"  	c #368D63",
". 	c #378D63",
"+ 	c #46925E",
"@ 	c #46925D",
"# 	c #45925E",
"$ 	c #368D64",
"% 	c #388E62",
"& 	c #679F4A",
"* 	c #6FA443",
"= 	c #45925F",
"- 	c #388D63",
"; 	c #47915E",
"> 	c #45915E",
", 	c #4A925C",
"' 	c #6EA344",
") 	c #368C63",
"! 	c #67A049",
"~ 	c #66A04A",
"{ 	c #328865",
"] 	c #3F8F61",
"^ 	c #68A049",
"/ 	c #6DA245",
"( 	c #3D8F62",
"_ 	c #669F4C",
": 	c #196D6B",
"< 	c #397D65",
"[ 	c #328864",
"} 	c #397E66",
"| 	c #397E65",
"1 	c #1B726C",
"2 	c #3E8F61",
"3 	c #67A04A",
"4 	c #649E4C",
"5 	c #3C8E62",
"6 	c #659F4B",
"7 	c #4D3B39",
"8 	c #534721",
"9 	c #679F49",
"0 	c #387D66",
"a 	c #387D65",
"b 	c #70A443",
"c 	c #70A442",
"d 	c #186D6B",
"e 	c #705654",
"f 	c #8F7772",
"g 	c #FFFC00",
"h 	c #68A04A",
"i 	c #6FA442",
"j 	c #105567",
"k 	c #47915D",
"l 	c #FFD600",
"m 	c #358D64",
"n 	c #699F4A",
"o 	c #318464",
"p 	c #135C69",
"q 	c #398E62",
"r 	c #44915F",
"s 	c #4D945B",
"t 	c #B7A099",
"u 	c #E3B700",
"v 	c #FF2627",
"w 	c #1C6366",
"x 	c #22786B",
"y 	c #429061",
"z 	c #6AA048",
"A 	c #6BA147",
"B 	c #408F61",
"C 	c #C79D00",
"D 	c #46915E",
"E 	c #639D4D",
"F 	c #45915F",
"G 	c #EEBE93",
"H 	c #3B6D5D",
"I 	c #FFE1AF",
"J 	c #D7906E",
"K 	c #EFEFEF",
"L 	c #343F2F",
"M 	c #F3EFEF",
"N 	c #FFFFFF",
"O 	c #A0A69E",
"P 	c #378D62",
"Q 	c #136F39",
"R 	c #47925D",
"S 	c #12A855",
"T 	c #3C8F61",
"U 	c #42905F",
"V 	c #70A342",
"W 	c #69A148",
"X 	c #419060",
"Y 	c #9D704C",
"Z 	c #3D8F61",
"` 	c #43915F",
" .	c #6EA345",
"..	c #69A149",
"+.	c #5C2E06",
"@.	c #853E10",
"#.	c #6DA244",
"$.	c #439061",
"%.	c #D14F35",
"&.	c #FF5DB3",
"*.	c #FFACD4",
"=.	c #FFD0DF",
"-.	c #358C64",
";.	c #3B8E62",
">.	c #6DA344",
",.	c #747676",
"'.	c #D6DAD9",
").	c #FF7774",
"!.	c #358D63",
"~.	c #6FA344",
"{.	c #358C63",
"].	c #338965",
"^.	c #B4B8B7",
"/.	c #21736D",
"(.	c #20736D",
"_.	c #1B726D",
":.	c #317869",
"<.	c #328964",
"[.	c #347B68",
"}.	c #70A344",
"|.	c #368862",
"1.	c #2A6363",
"2.	c #1C726B",
"3.	c #21776A",
"4.	c #699C48",
"5.	c #196066",
"6.	c #338863",
"                              . + @                             ",
"                      . # $   % & * =                           ",
"            - ; >   . , ' )     . ! ~   { {       { { {         ",
"            ] ^ / > ( * _               : < {   [ } | 1         ",
"              2 3 4 5 6 7 7 7 7 8 7 7 7 7 9 0 { a b c d         ",
"                $   7 7 e 8 f 8 g 8 f 8 e 7 7 d h i h j         ",
"            . k > 7 e f f g 8 l l l 8 g f f e 7 m n o p         ",
"  q + r   q s * 7 e f f t l u u v u u l t f f e 7   w x         ",
"  y z A r B ^ 7 e f f t C u f f f f f u C t f f e 7       + D   ",
"    y ^ E     7 e f f C t t t t t t t t t C f f e 7     F * ^ $ ",
"      $ $   7 e f f f f f t t t t t t t f f f f f e 7   ! ^ $   ",
"            7 e f f f e f f f f f f f f f e f f f e 7           ",
"            7 e f f f e f f f f f f f f f e f f f e 7           ",
"            7 e f f f e f e f e f e f e f e f f f e 7           ",
"            7 e f f f G H H H I I I H H H G f f f e 7           ",
"            7 e J f f H K L M I I I M L K H f f J e 7           ",
"            7 e J f t H N L O I I I O L N H t f J e 7           ",
"          P 7 e 8 f t G N Q Q I I I Q Q N G t f 8 e 7           ",
"        . R 7 e e f f G I S S I I I S S I G f f e e 7           ",
"  . T   U V 7 e e f f J G I I I I I I I G J f f e e 7   2       ",
"  F W T X 9 7 e e f f 8 Y J G G G G G J Y 8 f f e e 7 Z c m     ",
"  `  ...  $ 7 e +.f f @.8 8 8 8 8 8 8 8 8 @.f f +.e 7 c #.  T T ",
"    $.h     7 e +.e f @.%.&.*.=.I =.*.&.%.@.f e +.e 7 ' -.;.b >.",
"              ,.'.N e +.%.).).*.=.*.).).%.+.e N '.,.m   !.~.'   ",
"      {.{.{.].8 I I ^.+.@.).).).).).).).@.+.^.I I 8             ",
"    { /.(._.:.8 I G 8 &.&.%.%.).).).%.%.&.&.8 G I 8             ",
"  <.[.}.z |.1.A 8 8 @.&.@.*.*.=.=.=.*.*.@.&.@.8 8               ",
"  { 2.3.U 4.5.6.+.@.@.%.%.).=.'.'.'.=.).%.%.@.@.+.              ",
"                +.@.%.%.).).'.N N N '.).).%.%.@.+.              ",
"                +.@.%.%.).^.^.'.'.'.^.^.).%.%.@.+.              ",
"                  +.+.%.^.'.N N N N N '.^.%.+.+.                ",
"                      +.,.,.^.^.^.^.^.,.,.+.                    "};
