/* XPM */
static char * player_left_xpm[] = {
"32 32 151 2",
"  	c #368D63",
". 	c #378D63",
"+ 	c #46925E",
"@ 	c #46925D",
"# 	c #45925E",
"$ 	c #368D64",
"% 	c #388E62",
"& 	c #679F4A",
"* 	c #6FA443",
"= 	c #45925F",
"- 	c #388D63",
"; 	c #47915E",
"> 	c #45915E",
", 	c #4A925C",
"' 	c #6EA344",
") 	c #368C63",
"! 	c #67A049",
"~ 	c #66A04A",
"{ 	c #328865",
"] 	c #3F8F61",
"^ 	c #68A049",
"/ 	c #6DA245",
"( 	c #3D8F62",
"_ 	c #669F4C",
": 	c #196D6B",
"< 	c #397D65",
"[ 	c #328864",
"} 	c #397E66",
"| 	c #397E65",
"1 	c #1B726C",
"2 	c #3E8F61",
"3 	c #67A04A",
"4 	c #649E4C",
"5 	c #534721",
"6 	c #659F4B",
"7 	c #4D3B39",
"8 	c #679F49",
"9 	c #387D66",
"0 	c #387D65",
"a 	c #70A443",
"b 	c #70A442",
"c 	c #186D6B",
"d 	c #FFD600",
"e 	c #705654",
"f 	c #8F7772",
"g 	c #68A04A",
"h 	c #6FA442",
"i 	c #105567",
"j 	c #47915D",
"k 	c #C79D00",
"l 	c #E3B700",
"m 	c #FFFC00",
"n 	c #B7A099",
"o 	c #358D64",
"p 	c #699F4A",
"q 	c #318464",
"r 	c #135C69",
"s 	c #398E62",
"t 	c #44915F",
"u 	c #4D945B",
"v 	c #C70000",
"w 	c #1C6366",
"x 	c #22786B",
"y 	c #429061",
"z 	c #6AA048",
"A 	c #6BA147",
"B 	c #408F61",
"C 	c #639E4D",
"D 	c #46915E",
"E 	c #639D4D",
"F 	c #45915F",
"G 	c #EEBE93",
"H 	c #3B6D5D",
"I 	c #FFE1AF",
"J 	c #F3EFEF",
"K 	c #343F2F",
"L 	c #EFEFEF",
"M 	c #A0A69E",
"N 	c #FFFFFF",
"O 	c #9D704C",
"P 	c #378D62",
"Q 	c #D7906E",
"R 	c #136F39",
"S 	c #47925D",
"T 	c #6BA148",
"U 	c #12A855",
"V 	c #3C8F61",
"W 	c #42905F",
"X 	c #70A342",
"Y 	c #348B64",
"Z 	c #69A148",
"` 	c #419060",
" .	c #338964",
"..	c #297769",
"+.	c #28776A",
"@.	c #3D8F61",
"#.	c #43915F",
"$.	c #6EA345",
"%.	c #69A149",
"&.	c #348A64",
"*.	c #2C776A",
"=.	c #6DA146",
"-.	c #6AA147",
";.	c #3A8C61",
">.	c #6DA244",
",.	c #439061",
"'.	c #1D736B",
").	c #20766B",
"!.	c #6A9F47",
"~.	c #FFACD4",
"{.	c #FFD0DF",
"].	c #853E10",
"^.	c #5C2E06",
"/.	c #358C64",
"(.	c #3B8E62",
"_.	c #6DA344",
":.	c #358C63",
"<.	c #663450",
"[.	c #FF5DB3",
"}.	c #FF7774",
"|.	c #D14F35",
"1.	c #358D63",
"2.	c #6FA344",
"3.	c #338965",
"4.	c #22746B",
"5.	c #21746B",
"6.	c #1E736B",
"7.	c #21736D",
"8.	c #20736D",
"9.	c #1B726D",
"0.	c #317869",
"a.	c #6FA441",
"b.	c #689E47",
"c.	c #165C66",
"d.	c #747676",
"e.	c #D6DAD9",
"f.	c #328964",
"g.	c #347B68",
"h.	c #70A344",
"i.	c #368862",
"j.	c #2A6363",
"k.	c #338763",
"l.	c #175D66",
"m.	c #1C726B",
"n.	c #21776A",
"o.	c #699C48",
"p.	c #196066",
"q.	c #338863",
"r.	c #135A67",
"s.	c #1F756B",
"t.	c #B4B8B7",
"                              . + @                             ",
"                      . # $   % & * =                           ",
"            - ; >   . , ' )     . ! ~   { {       { { {         ",
"            ] ^ / > ( * _               : < {   [ } | 1         ",
"              2 3 4 5 6   7 7 7 7 7 7 7 7 8 9 { 0 a b c         ",
"                $ 5 d 5 7 5 e f f f f e e 7 7 c g h g i         ",
"            . j 5 k l d 5 m f f f f f n f f e 7 o p q r         ",
"  s + t   s u * 5 k v l l d m f f f f f n f f e 7   w x         ",
"  y z A t B ^ C 7 e f n n l d f f f f f n n f f e 7       + D   ",
"    y ^ E     o 7 f f f n n n d n n n n n f f f f 7     F * ^ $ ",
"      $ $     7 e f f f f n n n n n n n f f f f f e 7   ! ^ $   ",
"              7 e f f f f f f f f f f f f f f f f e 7           ",
"              7 e f f f f f f e f f f f f f f f f f 7           ",
"              7 e f e f e f f e f f e f f f f f f f 7           ",
"                7 5 G G H H H G f f 5 5 f f f f f f 7           ",
"                  5 G I J K L H f f G I 5 f f f f f 7           ",
"                  5 G I M K N H n f O I 5 f f f f f 7           ",
"          P 2     5 Q I R R N I n f O G 5 f f f f f 7           ",
"        . S T     5 O I U U I I f f Q 5 e f f f f e 7           ",
"  . V   W X 3     Y 5 Q I I I I f f Q O e f f e f e 7   2       ",
"  F Z V ` 8      ...+.5 O Q G G f f O O e f f e f e 7 @.b o     ",
"  #.$.%.  $   &.*.=.-.;.5 5 5 5 f f 5 5 e e f e e e 7 b >.  V V ",
"    ,.g       &.'.).V !.5 Q ~.{.f f ].].^.e f e e e 7 ' /.(.a _.",
"              :.:.:.    <.[.~.}.e f }.}.|.^.e 7 e e 7   1.2.'   ",
"      :.:.:.3.4.5.6.    ^.|.}.}.}.e }.}.|.^.e 7 e e 7           ",
"    { 7.8.9.0.a.b.c.    <.|.|.}.}.d.e.N e.d.7 7 e 7             ",
"  f.g.h.z i.j.A k.l.  <.[.~.{.{.{.5 I I G 5 ^.  7               ",
"  { m.n.W o.p.q.r.s.d.t.e.e.~.}.}.5 I I Q 5 ].^.                ",
"                  d.t.N N N }.}.}.|.5 5 5 |.|.].^.              ",
"                  d.t.t.e.e.}.}.}.}.}.|.|.|.|.].^.              ",
"                    d.e.N N }.}.}.}.}.}.|.|.].^.                ",
"                      d.d.t.t.].].].].^.^.^.^.                  "};
