/* XPM */
static char * player_right_xpm[] = {
"32 32 130 2",
"  	c #368D63",
". 	c #378D63",
"+ 	c #46925E",
"@ 	c #46925D",
"# 	c #45925E",
"$ 	c #368D64",
"% 	c #388E62",
"& 	c #679F4A",
"* 	c #6FA443",
"= 	c #45925F",
"- 	c #388D63",
"; 	c #47915E",
"> 	c #45915E",
", 	c #4A925C",
"' 	c #6EA344",
") 	c #368C63",
"! 	c #67A049",
"~ 	c #66A04A",
"{ 	c #328865",
"] 	c #3F8F61",
"^ 	c #68A049",
"/ 	c #6DA245",
"( 	c #3D8F62",
"_ 	c #669F4C",
": 	c #196D6B",
"< 	c #397D65",
"[ 	c #328864",
"} 	c #397E66",
"| 	c #397E65",
"1 	c #1B726C",
"2 	c #3E8F61",
"3 	c #67A04A",
"4 	c #649E4C",
"5 	c #3C8E62",
"6 	c #659F4B",
"7 	c #4D3B39",
"8 	c #135C67",
"9 	c #679F49",
"0 	c #534721",
"a 	c #387D65",
"b 	c #70A443",
"c 	c #70A442",
"d 	c #186D6B",
"e 	c #705654",
"f 	c #8F7772",
"g 	c #FFD600",
"h 	c #68A04A",
"i 	c #6FA442",
"j 	c #105567",
"k 	c #47915D",
"l 	c #B7A099",
"m 	c #FFFC00",
"n 	c #E3B700",
"o 	c #C79D00",
"p 	c #699F4A",
"q 	c #318464",
"r 	c #135C69",
"s 	c #398E62",
"t 	c #44915F",
"u 	c #4D945B",
"v 	c #C70000",
"w 	c #1C6366",
"x 	c #22786B",
"y 	c #429061",
"z 	c #6AA048",
"A 	c #6BA147",
"B 	c #408F61",
"C 	c #46915E",
"D 	c #639D4D",
"E 	c #45915F",
"F 	c #EEBE93",
"G 	c #3B6D5D",
"H 	c #FFE1AF",
"I 	c #EFEFEF",
"J 	c #343F2F",
"K 	c #F3EFEF",
"L 	c #9D704C",
"M 	c #FFFFFF",
"N 	c #A0A69E",
"O 	c #378D62",
"P 	c #136F39",
"Q 	c #D7906E",
"R 	c #47925D",
"S 	c #12A855",
"T 	c #3C8F61",
"U 	c #42905F",
"V 	c #70A342",
"W 	c #69A148",
"X 	c #419060",
"Y 	c #3D8F61",
"Z 	c #358D64",
"` 	c #43915F",
" .	c #6EA345",
"..	c #69A149",
"+.	c #3C8E61",
"@.	c #358D63",
"#.	c #6DA244",
"$.	c #439061",
"%.	c #5C2E06",
"&.	c #853E10",
"*.	c #FFD0DF",
"=.	c #FFACD4",
"-.	c #6DA344",
";.	c #3B8E62",
">.	c #358C64",
",.	c #D14F35",
"'.	c #FF7774",
").	c #FF5DB3",
"!.	c #663450",
"~.	c #6FA344",
"{.	c #358C63",
"].	c #21736D",
"^.	c #20736D",
"/.	c #1B726D",
"(.	c #317869",
"_.	c #747676",
":.	c #D6DAD9",
"<.	c #328964",
"[.	c #347B68",
"}.	c #70A344",
"|.	c #368862",
"1.	c #2A6363",
"2.	c #175D66",
"3.	c #1C726B",
"4.	c #21776A",
"5.	c #699C48",
"6.	c #196066",
"7.	c #338863",
"8.	c #135A67",
"9.	c #B4B8B7",
"                              . + @                             ",
"                      . # $   % & * =                           ",
"            - ; >   . , ' )     . ! ~   { {       { { {         ",
"            ] ^ / > ( * _               : < {   [ } | 1         ",
"              2 3 4 5 6 7 7 7 7 7 7 7 7 8 9 0 { a b c d         ",
"                $   7 7 e e f f f f e 0 7 0 g 0 h i h j         ",
"            . k > 7 e f f l f f f f f m 0 g n o 0 p q r         ",
"  s + t   s u * 7 e f f l f f f f f m g n n v o 0   w x         ",
"  y z A t B ^ 7 e f f l l f f f f f g n l l f e 7         + C   ",
"    y ^ D     7 f f f f l l l l l g l l l f f f 7       E * ^ $ ",
"      $ $   7 e f f f f f l l l l l l l f f f f e 7     ! ^ $   ",
"            7 e f f f f f f f f f f f f f f f f e 7             ",
"            7 f f f f f f f f f f e f f f f f f e 7             ",
"            7 f f f f f f f e f f e f f e f e f e 7             ",
"            7 f f f f f f 0 0 f f F G G G F F 0 7               ",
"            7 f f f f f 0 H F f f G I J K H F 0                 ",
"            7 f f f f f 0 H L f l G M J N H F 0                 ",
"          O 7 f f f f f 0 F L f l H M P P H Q 0                 ",
"        . R 7 e f f f f e 0 Q f f H H S S H L 0                 ",
"  . T   U V 7 e f e f f e L Q f f H H H H Q 0           2       ",
"  E W T X 9 7 e f e f f e L L f f F F Q L 0           Y c Z     ",
"  `  ...  $ 7 e e e f e e 0 0 f f 0 0 0 0   5 +.+.  @.c #.  T T ",
"    $.h     7 e e e f e %.&.&.f f *.=.Q 0   -.c c ;.  ' >.;.b -.",
"            7 e e 7 e %.,.'.'.f e '.=.).!.  @.~.' ' Z   @.~.'   ",
"      {.{.{.7 e e 7 e %.,.'.'.e '.'.'.,.%.                      ",
"    { ].^./.(.7 e 7 7 _.:.M :._.'.'.,.,.!.                      ",
"  <.[.}.z |.1.A 7 2.%.0 F H H 0 *.*.*.=.).!.                    ",
"  { 3.4.U 5.6.7.8.%.&.0 Q H H 0 '.'.=.:.:.9._.                  ",
"                %.&.,.,.0 0 0 ,.'.'.'.M M M 9._.                ",
"                %.&.,.,.,.,.'.'.'.'.'.:.:.9.9._.                ",
"                  %.&.,.,.'.'.'.'.'.'.M M :._.                  ",
"                    %.%.%.%.&.&.&.&.9.9._._.                    "};
