/* XPM */
static char * wall_xpm[] = {
"32 32 41 1",
" 	c #368D63",
".	c #122020",
"+	c #46925D",
"@	c #FEF3C0",
"#	c #14A02E",
"$	c #91E550",
"%	c #45925F",
"&	c #59C135",
"*	c #24523B",
"=	c #328865",
"-	c #FAD6B8",
";	c #72C135",
">	c #1A7A3E",
",	c #1B392D",
"'	c #398E62",
")	c #429061",
"!	c #368D64",
"~	c #F5A097",
"{	c #43915F",
"]	c #3C8F61",
"^	c #439061",
"/	c #3B8E62",
"(	c #70A443",
"_	c #6DA344",
":	c #6FA344",
"<	c #6EA344",
"[	c #358C63",
"}	c #21736D",
"|	c #20736D",
"1	c #328964",
"2	c #347B68",
"3	c #70A344",
"4	c #6AA048",
"5	c #368862",
"6	c #1C726B",
"7	c #21776A",
"8	c #42905F",
"9	c #699C48",
"0	c #196066",
"a	c #338863",
"b	c #135A67",
"           ......+  ....        ",
"      .. ...@#@#$.%.&&&&.       ",
"     .&&.###*@*#&&.#&&&. =..    ",
"      .#$##&#*&##&###&&...&&.   ",
"     .#&##&&&#&&&#&&&&&#&##&.   ",
"    .&#&&&&&#&&###&&-&-&&&#$.   ",
"   .$;&#&&&&&$&$&#&&>@>&#&$,*.  ",
" '.#@&&##$-#-#$&#&&##>&$$&&@*@. ",
" ).#,&&&&&>@>#&&#&&&##&$&&#*@,. ",
"  .##&&&&$-*-&>>&&&&###&####,#.!",
"   .###&&>*#*&>##&#&&&&&##*$&.! ",
" ..&&&&&#>&###&&&&###&&$@**#>.  ",
".$&##>&#>&&###$####>>&#@,***,,. ",
".####>>#&&&&#$&$###>&#>,@*###*. ",
" .>*>>>#>>#&#&#&###&##>>,#&>>,. ",
" .>*@>>#>>#&#-#-###&##>>*#&>>,. ",
" .*>,@>#>>##>,-,##&&##>>*#>>>*,.",
" .>>*,>>,,>#**,>###>>,,**>>>>*>.",
"  .*,>>*>,,>**>>#**,,*##>-*,*,*.",
" .*>*>>###**>#**#*****>#~,~**,,.",
" .*****,,#####>*>>##***#,,,*,,. ",
" {.*****,,*#,-#>*>**#*>##,,*,.]]",
"  ^.*>,,*,,,~,~***,##*>*,,**./(_",
"    .**>*,>***,>>,,,,>*****,.:< ",
"   [.*>*****>*>,>***,,,**,,.    ",
"  =}|.*,,**,*>,,**,,****,,.     ",
" 12345...,,,*>********,,,.      ",
" =67890ab..,,,,*,,,,,,,,.       ",
"           .............        ",
"                                ",
"                                ",
"                                "};
