/* XPM */
static char * you2_xpm[] = {
"32 32 153 2",
"  	c #368D63",
". 	c #378D63",
"+ 	c #46925E",
"@ 	c #46925D",
"# 	c #45925E",
"$ 	c #368D64",
"% 	c #388E62",
"& 	c #679F4A",
"* 	c #6FA443",
"= 	c #45925F",
"- 	c #388D63",
"; 	c #47915E",
"> 	c #45915E",
", 	c #4A925C",
"' 	c #6EA344",
") 	c #368C63",
"! 	c #67A049",
"~ 	c #66A04A",
"{ 	c #328865",
"] 	c #3F8F61",
"^ 	c #68A049",
"/ 	c #6DA245",
"( 	c #3D8F62",
"_ 	c #669F4C",
": 	c #196D6B",
"< 	c #397D65",
"[ 	c #328864",
"} 	c #397E66",
"| 	c #397E65",
"1 	c #1B726C",
"2 	c #3E8F61",
"3 	c #67A04A",
"4 	c #649E4C",
"5 	c #3C8E62",
"6 	c #659F4B",
"7 	c #135C67",
"8 	c #679F49",
"9 	c #387D66",
"0 	c #387D65",
"a 	c #70A443",
"b 	c #70A442",
"c 	c #186D6B",
"d 	c #387E65",
"e 	c #328766",
"f 	c #68A04A",
"g 	c #6FA442",
"h 	c #105567",
"i 	c #47915D",
"j 	c #1C726C",
"k 	c #669C4C",
"l 	c #21776B",
"m 	c #328464",
"n 	c #358D64",
"o 	c #699F4A",
"p 	c #318464",
"q 	c #135C69",
"r 	c #398E62",
"s 	c #44915F",
"t 	c #4D945B",
"u 	c #649E4D",
"v 	c #22786B",
"w 	c #22786A",
"x 	c #1C6366",
"y 	c #1C6465",
"z 	c #429061",
"A 	c #6AA048",
"B 	c #6BA147",
"C 	c #408F61",
"D 	c #639E4D",
"E 	c #46915E",
"F 	c #639D4D",
"G 	c #45915F",
"H 	c #000000",
"I 	c #DDD021",
"J 	c #D4A71F",
"K 	c #AE411A",
"L 	c #CC8A1E",
"M 	c #378D62",
"N 	c #47925D",
"O 	c #6BA148",
"P 	c #348A64",
"Q 	c #348B64",
"R 	c #3C8F61",
"S 	c #42905F",
"T 	c #70A342",
"U 	c #2B776A",
"V 	c #2B7869",
"W 	c #69A148",
"X 	c #419060",
"Y 	c #338964",
"Z 	c #297769",
"` 	c #28776A",
" .	c #20766B",
"..	c #338963",
"+.	c #2F7968",
"@.	c #6FA343",
"#.	c #29776A",
"$.	c #3D8F61",
"%.	c #43915F",
"&.	c #6EA345",
"*.	c #69A149",
"=.	c #2C776A",
"-.	c #6DA146",
";.	c #6AA147",
">.	c #3A8C61",
",.	c #1F5C64",
"'.	c #6DA345",
").	c #6DA045",
"!.	c #6BA045",
"~.	c #1B716B",
"{.	c #3C8E61",
"].	c #358D63",
"^.	c #6DA244",
"/.	c #439061",
"(.	c #1D736B",
"_.	c #6A9F47",
":.	c #205F65",
"<.	c #6BA247",
"[.	c #358B63",
"}.	c #145A67",
"|.	c #155A66",
"1.	c #6DA344",
"2.	c #3B8E62",
"3.	c #358C64",
"4.	c #358C63",
"5.	c #6FA344",
"6.	c #338965",
"7.	c #22746B",
"8.	c #21746B",
"9.	c #1E736B",
"0.	c #398E61",
"a.	c #21736D",
"b.	c #20736D",
"c.	c #1B726D",
"d.	c #317869",
"e.	c #6FA441",
"f.	c #689E47",
"g.	c #165C66",
"h.	c #328964",
"i.	c #347B68",
"j.	c #70A344",
"k.	c #368862",
"l.	c #2A6363",
"m.	c #338763",
"n.	c #175D66",
"o.	c #3B8E61",
"p.	c #1C726B",
"q.	c #21776A",
"r.	c #699C48",
"s.	c #196066",
"t.	c #338863",
"u.	c #135A67",
"v.	c #1F756B",
"                              . + @                             ",
"                      . # $   % & * =                           ",
"            - ; >   . , ' )     . ! ~   { {       { { {         ",
"            ] ^ / > ( * _               : < {   [ } | 1         ",
"              2 3 4 5 6               { 7 8 9 { 0 a b c         ",
"                $     $             { | d e f c f g f h         ",
"            . i >                   j k 3 l m h n o p q         ",
"  r + s   r t * u                   v w     x y     x v         ",
"  z A B s C ^ D                                           + E   ",
"    z ^ F     n                                         G * ^ $ ",
"      $ $                                               ! ^ $   ",
"                                                                ",
"              H H H H H H H H   H H H H H H H   H H H H H H H   ",
"              H I I H H I I H   H I I I I I H   H I I H I I H   ",
"              H J J H H J J H   H J J K J J H   H J J H J J H   ",
"              H K J J J J K H   H J J H J J H   H J J H J J H   ",
"              H H K L L K H H   H L L H L L H   H L L H L L H   ",
"          M 2   H H L L H H     H L L L L L H   H L L L L L H   ",
"        . N O     H K K H   P Q H K K K K K H   H K K K K K H   ",
"  . R   S T 3     H H H H P U V H H H H H H H   H H H H H H H   ",
"  G W R X 8     Y Z `  ...+.b @.#.Q                   $.b n     ",
"  %.&.*.  $   P =.-.;.>.,.b '.).!.~.        5 {.{.  ].b ^.  R R ",
"    /.f       P (. .R _.:.<.[.}.}.|.        1.b b 2.  ' 3.2.a 1.",
"              4.4.4.                        ].5.' ' n   ].5.'   ",
"      4.4.4.6.7.8.9.      $ r r 0.                              ",
"    { a.b.c.d.e.f.g.      {.g * '.3.                            ",
"  h.i.j.A k.l.B m.n.    o.g T 5.                                ",
"  { p.q.S r.s.t.u.v.                                            ",
"                                                                ",
"                                                                ",
"                                                                ",
"                                                                "};
